X:1
T:Ave Caesar - Horns Fanfare
M:4/4
L:1/8
Q:1/4=95
K:Dm
%%MIDI program 60
% Bars 101-125: Triumphant horn fanfares
% Heroic, victorious motifs
D4 F4 | A4 d4 | d4 c2 A2 | d8 |
D4 G4 | B4 d4 | c4 A4 | A8 |
D4 F4 | A4 d4 | d4 c2 A2 | d4 f4 |
d4 B4 | c4 G4 | D4 F4 | A8 |
D4 A4 | d4 c4 | A4 G4 | D4 F4 |
A4 d4 | d4 c2 A2 | G4 A4 | D4 F4 |
D8 |
